packages/icons/src/car-clock-fill.svg

<svg width="24" height="24" viewBox="0 0 24 24" fill="none" xmlns="http://www.w3.org/2000/svg">
<path fill-rule="evenodd" clip-rule="evenodd" d="M16.1805 4C17.5625 4 18.7657 4.94408 19.0944 6.28639L19.1688 6.59053C18.7879 6.53093 18.3976 6.5 18 6.5C17.6513 6.5 17.3082 6.5238 16.9721 6.56985C16.8275 6.26075 16.5358 6.04574 16.1989 6.00647L16.0872 6H7.9424C7.53654 6 7.17721 6.25476 7.03056 6.63299L6.99312 6.75003L6.49983 8.68523C8.46391 8.91133 10.4381 9.01563 12.4114 8.99811C11.2228 10.3252 10.5 12.0782 10.5 14C10.5 15.9208 11.222 17.6729 12.4095 18.9997L6.99117 19C5.88678 19.0005 4.99143 19.8956 4.99071 21H1.99983V13.659C1.99983 12.4844 2.34454 11.3379 2.988 10.3603L3.08597 10.2203C2.65781 10.1458 2.23036 10.0659 1.80371 9.98058L2.19594 8.01942C2.92398 8.16503 3.65444 8.29425 4.38679 8.4071L4.42238 8.33195L4.46153 8.21296L4.9755 6.24273C5.32011 4.92174 6.51315 4 7.87835 4H16.1805ZM8.99983 13H5.99983V15H8.99983V13Z" fill="black"/>
<path fill-rule="evenodd" clip-rule="evenodd" d="M22.2392 9.75736C21.114 8.63214 19.5879 8 17.9966 8C16.4053 8 14.8792 8.63214 13.7539 9.75736C12.6287 10.8826 11.9966 12.4087 11.9966 14C11.9966 15.5913 12.6287 17.1174 13.7539 18.2426C14.8792 19.3679 16.4053 20 17.9966 20C19.5879 20 21.114 19.3679 22.2392 18.2426C23.3644 17.1174 23.9966 15.5913 23.9966 14C23.9966 12.4087 23.3644 10.8826 22.2392 9.75736ZM18.4966 13.5V11H16.9966V15H20.9966V13.5H18.4966Z" fill="black"/>
</svg>

<svg xmlns="http://www.w3.org/2000/svg" width="24" height="24" fill="none" viewBox="0 0 24 24">
  <path fill="#000" fill-rule="evenodd" d="M16.18 4a3 3 0 0 1 2.914 2.286l.075.305a7.556 7.556 0 0 0-2.197-.021.983.983 0 0 0-.773-.564L16.087 6H7.942a.982.982 0 0 0-.911.633l-.038.117L6.5 8.685c1.964.226 3.938.33 5.911.313A7.472 7.472 0 0 0 10.5 14c0 1.92.722 3.673 1.91 5H6.99a2 2 0 0 0-2 2H2v-7.341a6 6 0 0 1 .988-3.299l.098-.14a51.977 51.977 0 0 1-1.282-.24l.392-1.96c.728.145 1.458.274 2.19.387l.036-.075.04-.119.514-1.97A3 3 0 0 1 7.878 4h8.302ZM9 13H6v2h3v-2Z" clip-rule="evenodd"/>
  <path fill="#000" fill-rule="evenodd" d="M22.24 9.757a6 6 0 1 0-8.486 8.485 6 6 0 0 0 8.485-8.485ZM18.496 13.5V11h-1.5v4h4v-1.5h-2.5Z" clip-rule="evenodd"/>
</svg>
